flaticon/essential/folder-9.svg

<svg xmlns="http://www.w3.org/2000/svg" width="32" height="32" viewBox="0 0 24 24">
    <path d="M 23.878906 9.375 C 23.78125 9.261719 23.640625 9.195312 23.492188 9.195312 L 22.433594 9.195312 L 22.433594 3.496094 C 22.433594 3.105469 22.117188 2.785156 21.726562 2.785156 L 9.441406 2.785156 L 8.445312 1.128906 C 8.316406 0.914062 8.085938 0.78125 7.835938 0.78125 L 2.308594 0.78125 C 1.921875 0.785156 1.601562 1.101562 1.601562 1.492188 L 1.601562 9.195312 L 0.507812 9.195312 C 0.359375 9.195312 0.21875 9.261719 0.125 9.371094 C 0.0273438 9.484375 -0.015625 9.632812 0.00390625 9.78125 L 1.976562 22.785156 C 2.015625 23.035156 2.226562 23.214844 2.480469 23.214844 L 21.519531 23.214844 C 21.773438 23.214844 21.984375 23.035156 22.023438 22.785156 L 23.992188 9.78125 C 24.015625 9.636719 23.972656 9.488281 23.878906 9.375 Z M 2.402344 1.585938 L 7.785156 1.585938 L 8.78125 3.242188 C 8.90625 3.457031 9.140625 3.585938 9.386719 3.585938 L 21.632812 3.585938 L 21.632812 9.195312 L 21.230469 9.195312 L 21.230469 7.59375 L 20.832031 7.59375 L 20.832031 6.390625 L 20.429688 6.390625 L 20.429688 5.191406 L 3.605469 5.191406 L 3.605469 6.390625 L 3.203125 6.390625 L 3.203125 7.59375 L 2.804688 7.59375 L 2.804688 9.195312 L 2.402344 9.195312 Z M 3.605469 8.394531 L 20.429688 8.394531 L 20.429688 9.195312 L 3.605469 9.195312 Z M 4.007812 7.191406 L 20.03125 7.191406 L 20.03125 7.59375 L 4.007812 7.59375 Z M 19.628906 6.390625 L 4.40625 6.390625 L 4.40625 5.992188 L 19.628906 5.992188 Z M 21.269531 22.414062 L 2.730469 22.414062 L 0.847656 9.996094 L 23.152344 9.996094 Z M 21.269531 22.414062"/>
    <path d="M 10.796875 20.414062 L 19.210938 20.414062 L 19.210938 14.804688 L 10.796875 14.804688 Z M 11.597656 15.605469 L 18.410156 15.605469 L 18.410156 19.613281 L 11.597656 19.613281 Z M 11.597656 15.605469"/>
    <path d="M12.800781 17.207031L14.402344 17.207031C14.625 17.207031 14.804688 17.027344 14.804688 16.808594 14.804688 16.585938 14.625 16.40625 14.402344 16.40625L12.800781 16.40625C12.578125 16.40625 12.402344 16.585938 12.402344 16.808594 12.402344 17.027344 12.578125 17.207031 12.800781 17.207031zM16.007812 17.207031L16.40625 17.207031C16.628906 17.207031 16.808594 17.027344 16.808594 16.808594 16.808594 16.585938 16.628906 16.40625 16.40625 16.40625L16.007812 16.40625C15.785156 16.40625 15.605469 16.585938 15.605469 16.808594 15.605469 17.027344 15.785156 17.207031 16.007812 17.207031zM17.207031 18.007812L12.800781 18.007812C12.578125 18.007812 12.402344 18.1875 12.402344 18.410156 12.402344 18.632812 12.578125 18.808594 12.800781 18.808594L17.207031 18.808594C17.429688 18.808594 17.609375 18.632812 17.609375 18.410156 17.609375 18.1875 17.429688 18.007812 17.207031 18.007812zM17.207031 18.007812"/>
</svg>

<svg xmlns="http://www.w3.org/2000/svg" width="32" height="32" viewBox="0 0 24 24">
    <path d="M23.879 9.375a.512.512 0 0 0-.387-.18h-1.058V3.496a.71.71 0 0 0-.707-.71H9.44l-.996-1.657a.712.712 0 0 0-.61-.348H2.31a.715.715 0 0 0-.707.711v7.703H.508a.507.507 0 0 0-.383.176.521.521 0 0 0-.121.41l1.973 13.004c.039.25.25.43.503.43h19.04c.253 0 .464-.18.503-.43l1.97-13.004a.512.512 0 0 0-.114-.406zM2.402 1.585h5.383l.996 1.657c.125.215.36.344.606.344h12.246v5.61h-.403V7.593h-.398V6.39h-.402v-1.2H3.605v1.2h-.402v1.203h-.398v1.601h-.403zm1.203 6.81H20.43v.8H3.605zm.403-1.204H20.03v.403H4.008zm15.62-.8H4.407v-.399H19.63zm1.642 16.023H2.73L.848 9.996h22.304zm0 0"/>
    <path d="M10.797 20.414h8.414v-5.61h-8.414zm.8-4.809h6.813v4.008h-6.812zm0 0"/>
    <path d="M12.8 17.207h1.602a.401.401 0 1 0 0-.8h-1.601a.398.398 0 0 0-.399.402c0 .218.176.398.399.398zm0 0M16.008 17.207h.398a.401.401 0 1 0 0-.8h-.398a.401.401 0 0 0 0 .8zm0 0M17.207 18.008h-4.406a.398.398 0 0 0-.399.402c0 .223.176.399.399.399h4.406a.398.398 0 0 0 .402-.399.402.402 0 0 0-.402-.402zm0 0"/>
</svg>
